test/fixtures/test-ocio-config/luts/log_to_linear.cube
TITLE "Log to Linear"
LUT_1D_SIZE 5
DOMAIN_MIN 0.0 0.0 0.0
DOMAIN_MAX 1.0 1.0 1.0

0.0 0.0 0.0
0.01 0.01 0.01
0.18 0.18 0.18
0.5 0.5 0.5
1.0 1.0 1.0
